packages/crayons-core/src/components/icon/icon-assets/icons/video.svg

<?xml version="1.0" encoding="UTF-8"?>
<svg width="16px" height="12px" viewBox="0 0 16 12" version="1.1" xmlns="http://www.w3.org/2000/svg" xmlns:xlink="http://www.w3.org/1999/xlink">
    <!-- Generator: Sketch 52.6 (67491) - http://www.bohemiancoding.com/sketch -->
    <title>icon/video</title>
    <desc>Created with Sketch.</desc>
    <g id="Icons-✅" stroke="none" stroke-width="1" fill="none" fill-rule="evenodd">
        <g id="Icons" transform="translate(-408.000000, -806.000000)" fill="currentColor">
            <g id="icon/video" transform="translate(408.000000, 806.000000)">
                <g id="video">
                    <path d="M10.37,12 L1.69,12 C0.76053011,12.0000163 0.00549982169,11.2494536 0,10.32 L0,1.69 C-1.14303784e-16,0.756638773 0.756638773,0 1.69,0 L10.37,0 C11.2994536,0.00549982169 12.0500163,0.76053011 12.05,1.69 L12.05,3.29 L15,2 C15.2199812,1.90156182 15.4748781,1.92143484 15.6769443,2.05277793 C15.8790106,2.18412102 16.0006541,2.40899924 16,2.65 L16,9.35 C16.0006541,9.59100076 15.8790106,9.81587898 15.6769443,9.94722207 C15.4748781,10.0785652 15.2199812,10.0984382 15,10 L12,8.71 L12,10.32 C12.0004025,11.2286578 11.2782554,11.9729567 10.37,12 Z M1.69,1.4 C1.52983742,1.4 1.4,1.52983742 1.4,1.69 L1.4,10.32 C1.40539091,10.4762443 1.53366276,10.600093 1.69,10.6 L10.37,10.6 C10.5246397,10.6 10.65,10.4746397 10.65,10.32 L10.65,7.64 C10.6556993,7.39572706 10.7883575,7.17210323 11,7.05 C11.1890289,6.93083286 11.4245405,6.91214146 11.63,7 L14.63,8.29 L14.63,3.71 L11.63,5 C11.4326657,5.10314663 11.1973343,5.10314663 11,5 C10.7998539,4.87062847 10.6792781,4.64831691 10.68,4.41 L10.68,1.69 C10.6827152,1.61402234 10.6544184,1.54020681 10.601611,1.48551348 C10.5488037,1.43082015 10.4760261,1.3999515 10.4,1.4 L1.69,1.4 Z" id="Shape"></path>
                </g>
            </g>
        </g>
    </g>
</svg>

<svg viewBox="0 0 16 12"><path d="M10.37 12H1.69A1.69 1.69 0 0 1 0 10.32V1.69C0 .757.757 0 1.69 0h8.68c.93.005 1.68.76 1.68 1.69v1.6L15 2a.71.71 0 0 1 1 .65v6.7a.71.71 0 0 1-1 .65l-3-1.29v1.61A1.68 1.68 0 0 1 10.37 12zM1.69 1.4a.29.29 0 0 0-.29.29v8.63a.29.29 0 0 0 .29.28h8.68a.28.28 0 0 0 .28-.28V7.64a.7.7 0 0 1 .35-.59.68.68 0 0 1 .63-.05l3 1.29V3.71l-3 1.29A.68.68 0 0 1 11 5a.7.7 0 0 1-.32-.59V1.69a.28.28 0 0 0-.28-.29H1.69z" fill="currentColor" fill-rule="evenodd"/></svg>
